X: 171
T: The Cumbernauld Reel
T: (Mr and Mrs George Stirrat)
C: Bert Murray
R: reel
B: Bert Murray's "Bon Accord Collection" 1999 p.17
Z: 2011 John Chambers <jc:trillian.mit.edu>
M: 2/4
L: 1/16
K: G
(uBc) |\
d2d2 dcBA | G2G2 GFGA | BAGA BABd | d2c2 c2(AB) |
c2c2 cBAG | F2F2 F2d2 | fede fedc | c2B2 B2(Bc) |
d2d2 dcBA | G2G2 GFGA | BAGA Bdgf | f2e2 e2(AB) |
cdcB ABAG | FGFE D2(FE) | Dd^cd =c2F2 | G6 ||
(uB,C) |\
DEDB, DEDB, | D2G2 G2(GA) | BAGA BABd | d2c2 c2(AB) |
cdcB ABAG | FGFE D2(FE) | Dd^cd =c2A2 | B6(B,C) |
DEDB, DEDB, | D2G2 G2(GA) | BAGA Bdgf | f2e2 e2(AB) |
cdcB ABAG | FGFE D2(FE) | Dd^cd =c2F2 | G6 |]
